app/images/social/viber.svg

<svg width="46" height="48" viewBox="0 0 46 48" fill="none" xmlns="http://www.w3.org/2000/svg">
<path d="M21.797 0.0079611C17.945 0.0544611 9.66347 0.687461 5.03147 4.93696C1.58596 8.35096 0.382965 13.3985 0.241965 19.64C0.124965 25.859 -0.0160351 37.538 11.2415 40.718V45.5615C11.2415 45.5615 11.171 47.4995 12.452 47.897C14.03 48.3965 14.9285 46.9055 16.4285 45.3035L19.226 42.14C26.9285 42.7805 32.828 41.3045 33.5075 41.0855C35.0705 40.586 43.874 39.461 45.3125 27.7805C46.7885 15.7175 44.594 8.11696 40.6325 4.67896H40.6085C39.413 3.57796 34.6085 0.0769611 23.8745 0.0379611C23.8745 0.0379611 23.078 -0.0160389 21.797 0.0064611V0.0079611ZM21.929 3.39946C23.0225 3.39196 23.687 3.43846 23.687 3.43846C32.7725 3.46246 37.109 6.19696 38.132 7.11796C41.468 9.97696 43.187 16.829 41.9285 26.9C40.733 36.665 33.593 37.283 32.2715 37.7045C31.709 37.8845 26.513 39.1655 19.967 38.744C19.967 38.744 15.092 44.627 13.568 46.142C13.3265 46.4075 13.0445 46.4855 12.8645 46.4465C12.6065 46.3835 12.5285 46.064 12.5435 45.626L12.59 37.5875C3.04247 34.9475 3.60497 24.986 3.70697 19.7825C3.82397 14.579 4.80046 10.322 7.70746 7.43896C11.621 3.90046 18.653 3.42346 21.926 3.39946H21.929ZM22.649 8.60146C22.5704 8.60067 22.4924 8.61544 22.4196 8.64492C22.3467 8.67439 22.2804 8.718 22.2245 8.77322C22.1686 8.82843 22.1242 8.89417 22.0938 8.96664C22.0634 9.03911 22.0477 9.11688 22.0475 9.19546C22.0475 9.53146 22.3205 9.79696 22.649 9.79696C24.1362 9.76868 25.6144 10.0351 26.9981 10.5809C28.3819 11.1267 29.644 11.941 30.7115 12.977C32.891 15.0935 33.953 17.9375 33.9935 21.656C33.9935 21.9845 34.259 22.2575 34.595 22.2575V22.2335C34.7533 22.2339 34.9054 22.1717 35.0181 22.0604C35.1308 21.9491 35.1949 21.7978 35.1965 21.6395C35.2693 19.8892 34.9855 18.1424 34.3622 16.5052C33.739 14.868 32.7893 13.3747 31.571 12.116C29.1965 9.79546 26.1875 8.59996 22.649 8.59996V8.60146ZM14.7425 9.97696C14.3179 9.91493 13.8849 10.0002 13.5155 10.2185H13.484C12.6264 10.7212 11.8538 11.3565 11.195 12.101C10.6475 12.734 10.3505 13.3745 10.2725 13.991C10.226 14.3585 10.2575 14.726 10.367 15.077L10.406 15.101C11.0225 16.913 11.828 18.656 12.812 20.297C14.0795 22.6024 15.6394 24.7345 17.453 26.6405L17.507 26.7185L17.5925 26.7815L17.6465 26.8445L17.7095 26.8985C19.6223 28.7174 21.7596 30.2845 24.0695 31.562C26.7095 32.999 28.3115 33.6785 29.273 33.9605V33.9755C29.555 34.061 29.8115 34.1 30.0695 34.1C30.8889 34.0399 31.6646 33.7072 32.273 33.155C33.014 32.496 33.6423 31.7202 34.133 30.8585V30.8435C34.5935 29.9765 34.4375 29.156 33.773 28.601C32.4422 27.4377 31.0031 26.4045 29.4755 25.5155C28.4525 24.9605 27.413 25.2965 26.9915 25.859L26.093 26.9915C25.6325 27.554 24.7955 27.476 24.7955 27.476L24.7715 27.491C18.53 25.8965 16.865 19.577 16.865 19.577C16.865 19.577 16.787 18.7175 17.3645 18.2795L18.4895 17.3735C19.028 16.9355 19.403 15.8975 18.8255 14.873C17.9426 13.3432 16.9116 11.9038 15.7475 10.5755C15.493 10.2623 15.1359 10.0492 14.7395 9.97396L14.7425 9.97696ZM23.687 11.759C22.8905 11.759 22.8905 12.962 23.6945 12.962C24.6849 12.978 25.6624 13.1891 26.5712 13.5832C27.48 13.9772 28.3023 14.5465 28.991 15.2585C29.6192 15.9515 30.102 16.7635 30.4106 17.6465C30.7193 18.5295 30.8476 19.4655 30.788 20.399C30.7907 20.5569 30.8552 20.7076 30.9676 20.8186C31.08 20.9296 31.2315 20.9922 31.3895 20.993L31.4135 21.0245C31.5726 21.0233 31.7249 20.9595 31.8375 20.847C31.95 20.7344 32.0138 20.5821 32.015 20.423C32.069 18.0395 31.328 16.04 29.8745 14.438C28.4135 12.836 26.375 11.9375 23.7725 11.759H23.687ZM24.6725 14.993C23.852 14.969 23.8205 16.196 24.6335 16.22C26.6105 16.322 27.5705 17.321 27.6965 19.376C27.6992 19.532 27.7629 19.6807 27.8739 19.7903C27.9849 19.8999 28.1345 19.9617 28.2905 19.9625H28.3145C28.3947 19.959 28.4734 19.9396 28.546 19.9054C28.6187 19.8713 28.6838 19.8229 28.7375 19.7633C28.7913 19.7037 28.8326 19.634 28.8591 19.5582C28.8857 19.4824 28.8968 19.4021 28.892 19.322C28.751 16.643 27.29 15.134 24.6965 14.9945H24.6725V14.993Z" fill="#030303"/>
</svg>

<svg width="46" height="48" fill="none" xmlns="http://www.w3.org/2000/svg"><path d="M21.797.008C17.945.054 9.663.688 5.031 4.937 1.586 8.351.383 13.398.242 19.64c-.117 6.219-.258 17.898 11 21.078v4.843s-.071 1.938 1.21 2.336c1.578.5 2.476-.991 3.976-2.593l2.798-3.164c7.703.64 13.602-.836 14.282-1.054 1.563-.5 10.366-1.625 11.804-13.305 1.477-12.063-.718-19.664-4.68-23.102h-.023c-1.196-1.101-6-4.602-16.735-4.641 0 0-.796-.054-2.077-.032v.002zm.132 3.391a25.416 25.416 0 011.758.04c9.085.023 13.422 2.758 14.445 3.679 3.336 2.859 5.055 9.711 3.797 19.782-1.196 9.765-8.336 10.383-9.657 10.805-.563.18-5.759 1.46-12.305 1.039 0 0-4.875 5.883-6.399 7.398-.242.265-.524.343-.704.304-.258-.063-.336-.382-.32-.82l.046-8.038c-9.548-2.64-8.985-12.602-8.883-17.806.117-5.203 1.093-9.46 4-12.343 3.914-3.539 10.946-4.016 14.219-4.04h.003zm.72 5.202a.595.595 0 00-.602.594c0 .336.273.602.602.602a11.269 11.269 0 018.063 3.18c2.179 2.117 3.241 4.96 3.281 8.679 0 .329.266.602.602.602v-.024a.6.6 0 00.602-.595 12.921 12.921 0 00-3.626-9.523C29.196 9.796 26.187 8.6 22.649 8.6v.001zm-7.907 1.376a1.878 1.878 0 00-1.227.242h-.031a9.412 9.412 0 00-2.289 1.882c-.547.633-.845 1.273-.922 1.89-.047.367-.015.735.094 1.086l.039.024a27.04 27.04 0 002.406 5.196 30.564 30.564 0 004.641 6.343l.054.078.085.064.055.063.063.053a31.005 31.005 0 006.36 4.664c2.64 1.437 4.241 2.116 5.203 2.399v.014c.282.086.538.125.797.125a3.68 3.68 0 002.203-.945 9.099 9.099 0 001.86-2.297v-.015c.46-.866.304-1.687-.36-2.242a27.699 27.699 0 00-4.298-3.085c-1.023-.555-2.062-.22-2.484.343l-.898 1.132c-.46.563-1.297.485-1.297.485l-.024.015c-6.242-1.595-7.907-7.914-7.907-7.914s-.078-.86.5-1.298l1.125-.905c.538-.438.913-1.476.336-2.501a26.989 26.989 0 00-3.079-4.297 1.71 1.71 0 00-1.008-.602l.003.003zm8.945 1.782c-.797 0-.797 1.203.008 1.203a7.536 7.536 0 015.296 2.296 6.989 6.989 0 011.797 5.141.604.604 0 00.602.594l.023.032a.606.606 0 00.602-.602c.054-2.383-.687-4.383-2.14-5.985-1.462-1.602-3.5-2.5-6.102-2.679h-.086zm.985 3.234c-.82-.024-.852 1.203-.038 1.227 1.976.102 2.936 1.101 3.063 3.156a.597.597 0 00.594.586h.023a.605.605 0 00.578-.64c-.141-2.679-1.602-4.188-4.195-4.327h-.024v-.002z" fill="#030303"/></svg>
